svg/emoji_u1f51f.svg

<?xml version="1.0" encoding="UTF-8"?>
<svg width="128" height="128" enable-background="new 0 0 128 128" xmlns="http://www.w3.org/2000/svg"><linearGradient id="b" x1="5.5161" x2="118.82" y1="5.2803" y2="119.05" gradientUnits="userSpaceOnUse"><stop stop-color="#81D4FA" offset="0"/><stop stop-color="#0094D6" offset="1"/></linearGradient><path d="m116 124h-104c-4.42 0-8-3.58-8-8v-104c0-4.42 3.58-8 8-8h104c4.42 0 8 3.58 8 8v104c0 4.42-3.58 8-8 8z" fill="url(#b)"/><g opacity=".2"><path d="m116 7c2.76 0 5 2.24 5 5v104c0 2.76-2.24 5-5 5h-104c-2.76 0-5-2.24-5-5v-104c0-2.76 2.24-5 5-5h104m0-3h-104c-4.42 0-8 3.58-8 8v104c0 4.42 3.58 8 8 8h104c4.42 0 8-3.58 8-8v-104c0-4.42-3.58-8-8-8z" fill="#424242"/></g><linearGradient id="a" x1="21.247" x2="106.25" y1="20.744" y2="106.74" gradientUnits="userSpaceOnUse"><stop stop-color="#C2ECFF" offset="0"/><stop stop-color="#BDEAFE" offset=".157"/><stop stop-color="#AEE3FA" offset=".3484"/><stop stop-color="#95D7F5" offset=".5578"/><stop stop-color="#73C7ED" offset=".7789"/><stop stop-color="#49B3E3" offset="1"/></linearGradient><path d="m101 109h-74c-4.42 0-8-3.58-8-8v-74c0-4.42 3.58-8 8-8h74c4.42 0 8 3.58 8 8v74c0 4.42-3.58 8-8 8z" fill="url(#a)"/><g opacity=".2"><path d="m49.16 29.59c0.68 0 1.24 0.55 1.24 1.24v66.34c0 0.68-0.55 1.24-1.24 1.24h-8.92c-0.68 0-1.24-0.55-1.24-1.24v-52.13c0-0.71-0.58-1.24-1.24-1.24-0.13 0-0.27 0.02-0.4 0.07l-9.91 3.34c-0.13 0.05-0.27 0.07-0.4 0.07-0.66 0-1.24-0.53-1.24-1.24v-7.01c0-0.52 0.32-0.98 0.81-1.16l22.11-8.19c0.14-0.06 0.28-0.09 0.43-0.09m0-3c-0.5 0-0.99 0.09-1.46 0.26l-22.12 8.19c-1.65 0.61-2.77 2.21-2.77 3.98v7.01c0 2.34 1.9 4.24 4.24 4.24 0.47 0 0.93-0.08 1.37-0.23l7.58-2.55v49.68c0 2.34 1.9 4.24 4.24 4.24h8.92c2.34 0 4.24-1.9 4.24-4.24v-66.34c0-2.34-1.9-4.24-4.24-4.24z" fill="#424242"/></g><path d="m49.16 98.41h-8.92c-0.68 0-1.24-0.55-1.24-1.24v-52.13c0-0.85-0.84-1.45-1.64-1.17l-9.91 3.34c-0.8 0.27-1.64-0.32-1.64-1.17v-7.01c0-0.52 0.32-0.98 0.81-1.16l22.11-8.19c0.14-0.05 0.28-0.08 0.43-0.08 0.68 0 1.24 0.55 1.24 1.24v66.34c0 0.67-0.56 1.23-1.24 1.23z" fill="#FAFAFA"/><g opacity=".2"><path d="m80.3 29.64c7.31 0 12.77 2.34 16.36 7.02s5.44 11.69 5.53 21.02v11.57c0 9.61-1.8 16.85-5.39 21.74-3.6 4.88-9.07 7.32-16.41 7.32-7.22 0-12.66-2.38-16.32-7.14s-5.53-11.8-5.62-21.14v-11.56c0-9.61 1.8-16.82 5.39-21.62 3.6-4.81 9.08-7.21 16.46-7.21m0.09 59.77c3.58 0 6.23-1.42 7.94-4.25s2.62-7.26 2.71-13.29v-15.1c0-6.27-0.86-10.87-2.57-13.79s-4.44-4.38-8.17-4.38c-3.64 0-6.32 1.39-8.03 4.15-1.71 2.77-2.62 7.09-2.71 12.97v15.15c0 6.24 0.87 10.89 2.62 13.95 1.74 3.06 4.47 4.59 8.21 4.59m-0.09-62.77c-8.34 0-14.68 2.83-18.86 8.41-3.98 5.31-5.99 13.19-5.99 23.42v11.57c0.1 9.99 2.2 17.7 6.24 22.97 4.24 5.51 10.53 8.31 18.7 8.31 8.32 0 14.65-2.87 18.83-8.54 3.97-5.39 5.98-13.3 5.98-23.51v-11.58c-0.1-9.98-2.17-17.66-6.15-22.85-4.19-5.44-10.49-8.2-18.75-8.2zm0.09 59.77c-2.67 0-4.4-0.95-5.61-3.08-1.48-2.59-2.22-6.78-2.22-12.47v-15.15c0.1-6.55 1.29-9.82 2.26-11.39 1.15-1.86 2.9-2.73 5.48-2.73 2.68 0 4.41 0.89 5.58 2.9 0.98 1.68 2.16 5.17 2.16 12.28v15.1c-0.1 6.76-1.29 10.11-2.27 11.74-1.18 1.93-2.84 2.8-5.38 2.8z" fill="#424242"/></g><path d="m102.19 69.25c0 9.61-1.8 16.85-5.39 21.74-3.6 4.88-9.07 7.32-16.41 7.32-7.22 0-12.66-2.38-16.32-7.14s-5.53-11.8-5.62-21.14v-11.56c0-9.61 1.8-16.82 5.39-21.62 3.6-4.8 9.08-7.21 16.46-7.21 7.31 0 12.77 2.34 16.36 7.02s5.44 11.69 5.53 21.02v11.57zm-11.15-12.48c0-6.27-0.86-10.87-2.57-13.79s-4.44-4.38-8.17-4.38c-3.64 0-6.32 1.39-8.03 4.15-1.71 2.77-2.62 7.09-2.71 12.97v15.15c0 6.24 0.87 10.89 2.62 13.95 1.74 3.06 4.48 4.59 8.22 4.59 3.58 0 6.23-1.42 7.94-4.25s2.62-7.26 2.71-13.29v-15.1z" fill="#FAFAFA"/></svg>

<svg width="128" height="128" style="enable-background:new 0 0 128 128;" xmlns="http://www.w3.org/2000/svg" xmlns:xlink="http://www.w3.org/1999/xlink">
  <g>
    <linearGradient id="SVGID_1_" gradientUnits="userSpaceOnUse" x1="5.5161" x2="118.8247" y1="5.2803" y2="119.0458">
      <stop offset="0" style="stop-color:#81D4FA"/>
      <stop offset="1" style="stop-color:#0094D6"/>
    </linearGradient>
    <path d="M116,124H12c-4.42,0-8-3.58-8-8V12c0-4.42,3.58-8,8-8h104c4.42,0,8,3.58,8,8v104 C124,120.42,120.42,124,116,124z" style="fill:url(#SVGID_1_);"/>
    <g style="opacity:0.2;">
      <path d="M116,7c2.76,0,5,2.24,5,5v104c0,2.76-2.24,5-5,5H12c-2.76,0-5-2.24-5-5V12c0-2.76,2.24-5,5-5H116 M116,4H12c-4.42,0-8,3.58-8,8v104c0,4.42,3.58,8,8,8h104c4.42,0,8-3.58,8-8V12C124,7.58,120.42,4,116,4L116,4z" style="fill:#424242;"/>
    </g>
    <linearGradient id="SVGID_2_" gradientUnits="userSpaceOnUse" x1="21.2471" x2="106.2471" y1="20.7441" y2="106.7441">
      <stop offset="0" style="stop-color:#C2ECFF"/>
      <stop offset="0.157" style="stop-color:#BDEAFE"/>
      <stop offset="0.3484" style="stop-color:#AEE3FA"/>
      <stop offset="0.5578" style="stop-color:#95D7F5"/>
      <stop offset="0.7789" style="stop-color:#73C7ED"/>
      <stop offset="1" style="stop-color:#49B3E3"/>
    </linearGradient>
    <path d="M101,109H27c-4.42,0-8-3.58-8-8V27c0-4.42,3.58-8,8-8h74c4.42,0,8,3.58,8,8v74 C109,105.42,105.42,109,101,109z" style="fill:url(#SVGID_2_);"/>
  </g>
  <g style="opacity:0.2;">
    <path d="M49.16,29.59c0.68,0,1.24,0.55,1.24,1.24v66.34c0,0.68-0.55,1.24-1.24,1.24h-8.92 c-0.68,0-1.24-0.55-1.24-1.24V45.04c0-0.71-0.58-1.24-1.24-1.24c-0.13,0-0.27,0.02-0.4,0.07l-9.91,3.34 c-0.13,0.05-0.27,0.07-0.4,0.07c-0.66,0-1.24-0.53-1.24-1.24v-7.01c0-0.52,0.32-0.98,0.81-1.16l22.11-8.19 C48.87,29.62,49.01,29.59,49.16,29.59 M49.16,26.59c-0.5,0-0.99,0.09-1.46,0.26l-22.12,8.19c-1.65,0.61-2.77,2.21-2.77,3.98v7.01 c0,2.34,1.9,4.24,4.24,4.24c0.47,0,0.93-0.08,1.37-0.23L36,47.49v49.68c0,2.34,1.9,4.24,4.24,4.24h8.92c2.34,0,4.24-1.9,4.24-4.24 V30.83C53.4,28.49,51.5,26.59,49.16,26.59L49.16,26.59z" style="fill:#424242;"/>
  </g>
  <path d="M49.16,98.41h-8.92c-0.68,0-1.24-0.55-1.24-1.24V45.04c0-0.85-0.84-1.45-1.64-1.17l-9.91,3.34 c-0.8,0.27-1.64-0.32-1.64-1.17v-7.01c0-0.52,0.32-0.98,0.81-1.16l22.11-8.19c0.14-0.05,0.28-0.08,0.43-0.08l0,0 c0.68,0,1.24,0.55,1.24,1.24v66.34C50.4,97.85,49.84,98.41,49.16,98.41z" style="fill:#FAFAFA;"/>
  <g style="opacity:0.2;">
    <path d="M80.3,29.64c7.31,0,12.77,2.34,16.36,7.02c3.59,4.68,5.44,11.69,5.53,21.02v11.57 c0,9.61-1.8,16.85-5.39,21.74c-3.6,4.88-9.07,7.32-16.41,7.32c-7.22,0-12.66-2.38-16.32-7.14c-3.66-4.76-5.53-11.8-5.62-21.14 V58.47c0-9.61,1.8-16.82,5.39-21.62C67.44,32.04,72.92,29.64,80.3,29.64 M80.39,89.41c3.58,0,6.23-1.42,7.94-4.25 c1.71-2.83,2.62-7.26,2.71-13.29v-15.1c0-6.27-0.86-10.87-2.57-13.79c-1.71-2.92-4.44-4.38-8.17-4.38c-3.64,0-6.32,1.39-8.03,4.15 c-1.71,2.77-2.62,7.09-2.71,12.97v15.15c0,6.24,0.87,10.89,2.62,13.95C73.92,87.88,76.65,89.41,80.39,89.41 M80.3,26.64 c-8.34,0-14.68,2.83-18.86,8.41c-3.98,5.31-5.99,13.19-5.99,23.42v11.57c0.1,9.99,2.2,17.7,6.24,22.97 c4.24,5.51,10.53,8.31,18.7,8.31c8.32,0,14.65-2.87,18.83-8.54c3.97-5.39,5.98-13.3,5.98-23.51V57.69 c-0.1-9.98-2.17-17.66-6.15-22.85C94.86,29.4,88.56,26.64,80.3,26.64L80.3,26.64z M80.39,86.41c-2.67,0-4.4-0.95-5.61-3.08 c-1.48-2.59-2.22-6.78-2.22-12.47V55.71c0.1-6.55,1.29-9.82,2.26-11.39c1.15-1.86,2.9-2.73,5.48-2.73c2.68,0,4.41,0.89,5.58,2.9 c0.98,1.68,2.16,5.17,2.16,12.28v15.1c-0.1,6.76-1.29,10.11-2.27,11.74C84.59,85.54,82.93,86.41,80.39,86.41L80.39,86.41z" style="fill:#424242;"/>
  </g>
  <path d="M102.19,69.25c0,9.61-1.8,16.85-5.39,21.74c-3.6,4.88-9.07,7.32-16.41,7.32 c-7.22,0-12.66-2.38-16.32-7.14c-3.66-4.76-5.53-11.8-5.62-21.14V58.47c0-9.61,1.8-16.82,5.39-21.62c3.6-4.8,9.08-7.21,16.46-7.21 c7.31,0,12.77,2.34,16.36,7.02c3.59,4.68,5.44,11.69,5.53,21.02V69.25z M91.04,56.77c0-6.27-0.86-10.87-2.57-13.79 c-1.71-2.92-4.44-4.38-8.17-4.38c-3.64,0-6.32,1.39-8.03,4.15c-1.71,2.77-2.62,7.09-2.71,12.97v15.15c0,6.24,0.87,10.89,2.62,13.95 c1.74,3.06,4.48,4.59,8.22,4.59c3.58,0,6.23-1.42,7.94-4.25c1.71-2.83,2.62-7.26,2.71-13.29V56.77z" style="fill:#FAFAFA;"/>
</svg>
